src/apps/symbolic/goa-panel-symbolic.svg

<svg width="16" height="16" enable-background="new" version="1.1" xmlns="http://www.w3.org/2000/svg">
 <path class="ColorScheme-Text" d="m6.9999 3a5 5 0 0 1 4.5996 3.041 2 2 0 0 1 0.40039-0.041016 2 2 0 0 1 2 2 2 2 0 0 1-2e-3 0.050781c1.145 0.22948 2.002 1.2347 2.002 2.4492 0 1.385-1.115 2.5-2.5 2.5h-11c-1.385 0-2.5-1.115-2.5-2.5 0-1.2145 0.85694-2.2197 2.002-2.4492a5 5 0 0 1-2e-3 -0.050781 5 5 0 0 1 5-5zm0.066406 1a4 4 0 0 0-0.066406 0 4 4 0 0 0-4 4 4 4 0 0 0 0.13281 1h-0.63281c-0.831 0-1.5 0.669-1.5 1.5s0.669 1.5 1.5 1.5h11c0.831 0 1.5-0.669 1.5-1.5s-0.669-1.5-1.5-1.5h-0.5v-1a1 1 0 0 0-1-1h-1.1328a4 4 0 0 0-3.8008-3z" color="#363636" fill="currentColor"/>
</svg>

<svg xmlns="http://www.w3.org/2000/svg" width="16" height="16">
    <path fill="currentColor" fill-opacity=".7" d="M7 3a5 5 0 0 1 4.6 3.041A2 2 0 0 1 12 6a2 2 0 0 1 2 2 2 2 0 0 1-.002.05A2.492 2.492 0 0 1 16 10.5c0 1.385-1.115 2.5-2.5 2.5h-11A2.495 2.495 0 0 1 0 10.5c0-1.215.857-2.22 2.002-2.45A5 5 0 0 1 2 8a5 5 0 0 1 5-5zm.066 1A4 4 0 0 0 7 4a4 4 0 0 0-4 4 4 4 0 0 0 .133 1H2.5C1.669 9 1 9.669 1 10.5S1.669 12 2.5 12h11c.83 0 1.5-.669 1.5-1.5S14.33 9 13.5 9H13V8a1 1 0 0 0-1-1h-1.133a4 4 0 0 0-3.8-3z" class="ColorScheme-Text" color="#050505"/>
</svg>
